svg_80x80/remix.svg

<svg viewBox="0 0 80 80" xmlns="http://www.w3.org/2000/svg">
<rect width="100%" height="100%" fill="#212121"/>
<path d="M61.6669 65.9999C61.6669 62.9257 61.6669 60.1093 61.1992 54.1013C60.6203 48.0655 57.4778 45.0062 52.1024 43.9313C58.4702 43.1045 63.1839 38.1435 63.1839 30.5367C63.1839 20.3666 56.4854 14 43.0057 14H18V24.599H40.5248C46.479 24.599 49.4562 27.1543 49.4562 31.3712C49.4562 36.1668 46.479 37.9782 40.5248 37.9782H18V48.8097H39.8632C44.5769 48.8097 47.1406 50.1325 47.554 56.0858C47.8669 60.1517 47.8277 62.1653 47.7901 64.0961L47.7899 64.1044C47.7779 64.7229 47.766 65.3332 47.766 66L61.6669 65.9999Z" fill="white"/>
<path d="M18 57.9255V66H35.6864V60.8323C35.6864 59.7464 35.1533 57.9255 32.6982 57.9255H18Z" fill="white"/>
</svg>

<svg xmlns="http://www.w3.org/2000/svg" viewBox="0 0 80 80">
  <rect width="100%" height="100%" fill="#212121"/>
  <path fill="#fff" d="M61.7 66c0-3 0-5.9-.5-11.9-.6-6-3.7-9-9.1-10.2 6.4-.8 11-5.8 11-13.4 0-10.1-6.6-16.5-20-16.5H18v10.6h22.5c6 0 9 2.6 9 6.8 0 4.8-3 6.6-9 6.6H18v10.8h21.9c4.7 0 7.2 1.3 7.7 7.3.3 4 .2 6 .2 8V66h13.9Z"/>
  <path fill="#fff" d="M18 58v8h17.7v-5.2c0-1-.5-2.9-3-2.9H18Z"/>
</svg>
